X:7
T:Singing Stream, The
R:reel
C:Niall Vallely
M:C|
K:D
d~A3 GAdF|Adef edBc|
d~A3 fged|edef ~g2fe|
d~A3 GAdF|Adef ed(3efg|
~a3b bagf|1 edef ~g2fe:|2 edef ~g2fg||
~a2de cdef|~g3f egfe|
d~A3 FAdf|~g2fd efge|1 ~a2de cdef|
~g3f egfe|d~A3 FAdf|
edfe d2(3efg:|2 ~a3b bagf|
edef gefe|dGAd FAdG|AdFA dgfe||
